docs/public/img/providers/mailru.svg

<?xml version="1.0" encoding="UTF-8"?>
<svg width="96px" height="32px" viewBox="0 0 96 32" version="1.1" xmlns="http://www.w3.org/2000/svg" xmlns:xlink="http://www.w3.org/1999/xlink">
    <!-- Generator: Sketch 51.2 (57519) - http://www.bohemiancoding.com/sketch -->
    <title>Logo</title>
    <desc>Created with Sketch.</desc>
    <defs>
        <path d="M82.2611707,23.4784447 L79.259403,23.4784447 L79.259403,22.3740673 C78.0996498,23.3883565 76.5844785,23.9925607 74.8019359,23.9925607 C70.539141,23.9925607 67.078359,20.5370776 67.078359,16.2808717 C67.078359,12.0246658 70.539141,8.56923311 74.8019359,8.56923311 C76.5844785,8.56923311 78.0996498,9.17341716 79.259403,10.1877164 L79.259403,9.08328858 L82.2611707,9.08328858 L82.2611707,23.4784447 Z M44.1564208,23.4784447 L41.154754,23.4784447 L41.154754,9.0833894 L44.1564208,9.0833894 L44.1564208,9.8827512 C44.8230315,9.25699276 46.0775966,8.57135023 47.634065,8.56923311 C49.6329884,8.56923311 51.4230028,9.47818077 52.6124416,10.9035026 C53.8019813,9.47818077 55.5919957,8.56923311 57.5909191,8.56923311 C61.1635771,8.56923311 64.0702301,11.4713933 64.0702301,15.038529 L64.0702301,23.4784447 L61.0684624,23.4784447 L61.0684624,15.038529 C61.0684624,13.1240529 59.508359,11.566361 57.5909191,11.566361 C55.6732774,11.566361 54.1133759,13.1240529 54.1133759,15.038529 L54.1133759,23.4784447 L51.1116082,23.4784447 L51.1116082,15.038529 C51.1116082,13.1240529 49.5515048,11.566361 47.634065,11.566361 C45.7165242,11.566361 44.1564208,13.1240529 44.1564208,15.038529 L44.1564208,23.4784447 Z M85.8482675,23.4784447 L88.8500352,23.4784447 L88.8500352,9.08337932 L85.8482675,9.08337932 L85.8482675,23.4784447 Z M92.4374349,23.4784447 L95.4392027,23.4784447 L95.4392027,2.91400797 L92.4374349,2.91400797 L92.4374349,23.4784447 Z M74.8019359,11.5259342 C77.4303128,11.5259342 79.5015315,13.6565575 79.5015315,16.2808717 C79.5015315,18.9051859 77.4303128,21.0358092 74.8019359,21.0358092 C72.1735591,21.0358092 70.0396373,18.9051859 70.0396373,16.2808717 C70.0396373,13.6565575 72.1735591,11.5259342 74.8019359,11.5259342 Z M87.3515242,2.39986177 C88.4894677,2.39986177 89.4132516,3.32231863 89.4132516,4.45840239 C89.4132516,5.59458697 88.4894677,6.51704383 87.3515242,6.51704383 C86.2135807,6.51704383 85.2897967,5.59458697 85.2897967,4.45840239 C85.2897967,3.32231863 86.2135807,2.39986177 87.3515242,2.39986177 Z" id="path-1"></path>
    </defs>
    <g id="done" stroke="none" stroke-width="1" fill="none" fill-rule="evenodd">
        <g id="new-logo_septima_grafit" transform="translate(-84.000000, -44.000000)">
            <g id="head" transform="translate(0.000000, 32.000000)">
                <g id="left-part" transform="translate(84.000000, 0.000000)">
                    <g id="Logo" transform="translate(0.000000, 12.000000)">
                        <g id="Group-3" transform="translate(41.000000, 3.008869)"></g>
                        <g id="Group-7">
                            <path d="M16.083798,0 C7.26134934,0 0.0837980498,7.17755129 0.0837980498,15.9998994 C0.0837980498,24.8224487 7.26134934,32 16.083798,32 C19.3274179,32 22.4540408,31.0229806 25.0962786,29.2171245 L22.9991878,26.779103 C20.9488757,28.0979585 18.5592424,28.809899 16.083798,28.809899 C9.02032625,28.809899 3.27389909,23.0634718 3.27389909,15.9998994 C3.27389909,8.9364276 9.02032625,3.19000044 16.083798,3.19000044 C23.1473705,3.19000044 28.8937976,8.9364276 28.8937976,15.9998994 C28.8937976,16.9301401 28.7893756,17.8550491 28.592,18.7547077 C28.1813541,20.4386376 27.0072609,20.9594397 26.105188,20.8889196 C25.2156899,20.817293 24.1589959,20.1831157 24.1520546,18.6169874 L24.1520546,15.9998994 C24.1520546,11.5512018 20.5325962,7.93174345 16.083798,7.93174345 C11.6352011,7.93174345 8.0155415,11.5512018 8.0155415,15.9998994 C8.0155415,20.4488988 11.6352011,24.0682566 16.083798,24.0682566 C18.3384272,24.0682566 20.37878,23.1375128 21.8442085,21.6416028 C22.7071484,23.0197112 24.1360593,23.9311399 25.8495654,24.0687595 C25.9924163,24.0802279 26.1350659,24.0858614 26.2773132,24.0858614 C27.4383285,24.0858614 28.5704718,23.7067031 29.5045353,22.9974787 C30.468678,22.2656196 31.1705586,21.2253233 31.564002,19.9668274 C31.6268765,19.7658302 31.7421632,19.300056 31.743471,19.2939194 L31.742968,19.2939194 C32.0053307,18.1579533 32.0838986,17.1099109 32.0838986,15.9998994 C32.0838986,7.17755129 24.9062468,0 16.083798,0 Z M11.2056425,15.9998994 C11.2056425,13.3101788 13.3940774,11.1218445 16.083798,11.1218445 C18.7736193,11.1218445 20.9619536,13.3101788 20.9619536,15.9998994 C20.9619536,18.6898212 18.7736193,20.8781555 16.083798,20.8781555 C13.3940774,20.8781555 11.2056425,18.6898212 11.2056425,15.9998994 Z" id="Clip-2" fill="#FF9E00"></path>
                            <mask id="mask-2" fill="white">
                                <use xlink:href="#path-1"></use>
                            </mask>
                            <use id="Fill-4" fill="#FFFFFF" xlink:href="#path-1"></use>
                        </g>
                    </g>
                </g>
            </g>
        </g>
    </g>
</svg>

<svg xmlns:xlink="http://www.w3.org/1999/xlink" viewBox="0 0 32 32"><defs><path id="a" d="M82.26 23.48h-3v-1.1a6.64 6.64 0 0 1-4.46 1.61 7.72 7.72 0 1 1 0-15.42c1.78 0 3.3.6 4.46 1.62v-1.1h3v14.39Zm-38.1 0h-3V9.08h3v.8a5.23 5.23 0 0 1 3.47-1.31c2 0 3.8.9 4.98 2.33a6.47 6.47 0 0 1 11.46 4.14v8.44h-3v-8.44a3.48 3.48 0 0 0-6.96 0v8.44h-3v-8.44a3.48 3.48 0 0 0-6.95 0v8.44Zm41.69 0h3V9.08h-3v14.4Zm6.59 0h3V2.9h-3v20.57ZM74.8 11.53a4.7 4.7 0 0 1 4.7 4.75 4.7 4.7 0 0 1-4.7 4.76 4.76 4.76 0 1 1 0-9.51ZM87.35 2.4a2.06 2.06 0 1 1 0 4.12 2.06 2.06 0 0 1 0-4.12Z"/></defs><g fill="none" fill-rule="evenodd"><path fill="#FF9E00" d="M16.08 0c-8.82 0-16 7.18-16 16A16.02 16.02 0 0 0 25.1 29.22L23 26.78A12.82 12.82 0 0 1 3.27 16c0-7.06 5.75-12.81 12.81-12.81A12.82 12.82 0 0 1 28.6 18.75c-.4 1.69-1.58 2.2-2.48 2.14-.9-.07-1.95-.7-1.96-2.27V16a8.08 8.08 0 0 0-16.13 0 8.08 8.08 0 0 0 13.82 5.64 5.15 5.15 0 0 0 4.44 2.45c1.16 0 2.29-.38 3.22-1.1a5.97 5.97 0 0 0 2.24-3.7A16.02 16.02 0 0 0 16.08 0Zm-4.87 16a4.88 4.88 0 1 1 9.76.01 4.88 4.88 0 0 1-9.76-.01Z"/><use xlink:href="#a" fill="#FFFFFF"/></g></svg>
